X: 1720
T: Senden Bana Ne Kaldı
C: Teoman Alpay
O: Turkey
F: http://compmusic.upf.edu/node/140
N: muhayyerkurdi--sarki--duyek--senden_bana--teoman_alpay
N: makam= muhayyerkurdi
N: form= sarki
N: usul= duyek = 8/4
M: 8/4
L: 1/16
K: C _B   
Q: 1/4=180
%%MIDI tuningsystem comma53
z2 e2 f2 g2 a4 f2 g2  | e16  | z2 d2 e2 f2 g4 e2 f2  | d16  | \
w:   |   |   |   | 
z2 c2 d2 e2 f4 c2 d2  | 
w:   | 
B16  | z2 A2 B2 c2 d4 c2 B2  | A16  | z2 e2 f2 g2 a4 f2 g2  | e16  | \
w:   |   |   |   |   | 
z2 d2 e2 f2 g4 e2 f2  | 
w:   | 
d16  | z2 c2 d2 e2 f4 c2 d2  | B16  | z2 A2 B2 c2 d4 c2 B2  | A16  | \
w:   |   |   |   |   | 
z2 g2 a2 b2 c'4 b2 c'2  | 
w:  Sen den  ba na  ne  kal  | 
a16  | z2 g2 a2 b2 a2 g2 f2 g2  | e16  | \
w:  dı    |  Bir  ha tı ra dan  *  baş  |  ka    | 
z2 b2 a2 g2 f2 e2 f2 d2  | c16  | z2 A2 B2 c2 d4 c2 B2  | 
w:  Bir  da ha  ge ri  dön  |  mem    |  Ya lan  kat tı ğın_ aş  | 
A16  | z2 b2 a2 g2 f2 e2 f2 d2  | c16  | \
w:  ka    |  Bir  da ha  ge ri  dön  |  mem    | 
z2 A2 B2 c2 d4 c2 B2  | A16  | z2 e2 f2 g2 a4 f2 g2  | 
w:  Ya lan  kat tı ğın_ aş  |  ka    |  Kal bi mi  kı ra  kı  | 
e16  | z2 d2 e2 f2 g4 e2 f2  | d16  | z2 c2 d2 e2 f4 c2 d2  | B16  | \
w:  ra    |  Bı rak tın  bir  ha tı  |  ra    |  Gü na hı mı  ya ban  |  cı    | 
z2 A2 B2 c2 d4 c2 B2  | 
w:  Du dak la rın da  a  | 
A16  | z2 e2 f2 g2 a4 f2 g2  | e16  | z2 d2 e2 f2 g4 e2 f2  | d16  | \
w:  ra    |  Kal bi mi  kı ra  kı  |  ra    |  Bı rak tın  bir  ha tı  |  ra    | 
z2 c2 d2 e2 f4 c2 d2  | 
w:  Gü na hı mı  ya ban  | 
B16  | z2 A2 B2 c2 d4 c2 B2  | A16  | z2 e2 f2 g2 a4 f2 g2  | e16  | \
w:  cı    |  Du dak la rın da  a  |  ra    |   |   | 
z2 d2 e2 f2 g4 e2 f2  | 
w:   | 
d16  | z2 c2 d2 e2 f4 c2 d2  | B16  | z2 A2 B2 c2 d4 c2 B2  | A16  | \
w:   |   |   |   |   | 
z2 e2 f2 g2 a4 f2 g2  | 
w:   | 
e16  | z2 d2 e2 f2 g4 e2 f2  | d16  | z2 c2 d2 e2 f4 c2 d2  | B16  | \
w:   |   |   |   |   | 
z2 A2 B2 c2 d4 c2 B2  | 
w:   | 
A16  | z2 g2 a2 b2 c'4 b2 c'2  | a16  | \
w:   |  Sen den  ba na  ne  kal  |  dı    | 
z2 g2 a2 b2 a2 g2 f2 g2  | e16  | z2 b2 a2 g2 f2 e2 f2 d2  | 
w:  Bir  ha tı ra dan  *  baş  |  ka    |  Bir  da ha  ge ri  dön  | 
c16  | z2 A2 B2 c2 d4 c2 B2  | A16  | z2 b2 a2 g2 f2 e2 f2 d2  | c16  | \
w:  mem    |  Ya lan  kat tı ğın_ aş  |  ka    |  Bir  da ha  ge ri  dön  |  mem    | 
z2 A2 B2 c2 d4 c2 B2  | 
w:  Ya lan  kat tı ğın_ aş  | 
A16  | z2 e2 f2 g2 a4 f2 g2  | e16  | z2 d2 e2 f2 g4 e2 f2  | d16  | \
w:  ka    |  Kal bi mi  kı ra  kı  |  ra    |  Bı rak tın  bir  ha tı  |  ra    | 
z2 c2 d2 e2 f4 c2 d2  | 
w:  Gü na hı mı  ya ban  | 
B16  | z2 A2 B2 c2 d4 c2 B2  | A16  | z2 e2 f2 g2 a4 f2 g2  | e16  | \
w:  cı    |  Du dak la rın da  a  |  ra    |  Kal bi mi  kı ra  kı  |  ra    | 
z2 d2 e2 f2 g4 e2 f2  | 
w:  Bı rak tın  bir  ha tı  | 
d16  | z2 c2 d2 e2 f4 c2 d2  | B16  | z2 A2 B2 c2 d4 c2 B2  | A16  | |


